src/assets/icons/bubble/tested-positive.svg

<?xml version="1.0" encoding="UTF-8"?>
<svg width="56px" height="56px" viewBox="0 0 56 56" version="1.1" xmlns="http://www.w3.org/2000/svg" xmlns:xlink="http://www.w3.org/1999/xlink">
    <title>bubble-tested-positive</title>
    <g id="bubble-tested-positive" stroke="none" stroke-width="1" fill="none" fill-rule="evenodd">
        <circle id="Oval" fill="#523178" opacity="0.12" cx="28" cy="28" r="28"></circle>
        <path d="M33.0909091,13 C34.295894,13 35.2727273,13.9593898 35.2727273,15.1428571 C35.2727273,16.2550272 34.4100461,17.1693053 33.306042,17.2754291 L32.9049067,18.5204065 C35.8329657,20.1042679 37.8821369,23.0622113 38.1515991,26.5095019 L40.0130851,26.7959674 C40.4056926,26.229302 41.0676858,25.8571429 41.8181818,25.8571429 C43.0231667,25.8571429 44,26.8165327 44,28 C44,29.1834673 43.0231667,30.1428571 41.8181818,30.1428571 C40.8265286,30.1428571 39.9893937,29.4930993 39.7240613,28.6034162 L38.1240381,28.3573593 C37.8576984,30.8126418 36.686602,33.002396 34.9445139,34.5988169 L35.6041656,35.8923209 C35.7325351,35.8692148 35.8648321,35.8571429 36,35.8571429 C37.2049849,35.8571429 38.1818182,36.8165327 38.1818182,38 C38.1818182,39.1834673 37.2049849,40.1428571 36,40.1428571 C34.7950151,40.1428571 33.8181818,39.1834673 33.8181818,38 C33.8181818,37.6328164 33.9122136,37.2872029 34.0779167,36.9851206 L33.4436392,35.7380116 C32.3776772,36.4016245 31.1775767,36.8760866 29.8922708,37.1133388 L30.4418837,38.7293505 C31.5242734,38.8556134 32.3636364,39.7601067 32.3636364,40.8571429 C32.3636364,42.0406102 31.3868031,43 30.1818182,43 C28.9768333,43 28,42.0406102 28,40.8571429 C28,40.2476747 28.2590657,39.697634 28.6749429,39.3074492 L27.9886931,37.2855472 L27.7197403,37.2819992 C24.7368039,37.2028259 22.0739908,35.8636255 20.2630984,33.7866988 L16.3587132,35.2879583 C16.2827484,36.4037587 15.3371518,37.2857143 14.1818182,37.2857143 C12.9768333,37.2857143 12,36.3263245 12,35.1428571 C12,33.9593898 12.9768333,33 14.1818182,33 C14.7621845,33 15.2896253,33.2225544 15.680492,33.5855084 L19.1584118,32.2483185 C18.3056502,30.7859339 17.8181818,29.0917347 17.8181818,27.2857143 C17.8181818,25.3111478 18.4008813,23.4702479 19.4066078,21.9198355 L16.6561541,19.894865 C16.3518092,20.0531897 16.0047483,20.1428571 15.6363636,20.1428571 C14.4313787,20.1428571 13.4545455,19.1834673 13.4545455,18 C13.4545455,16.8165327 14.4313787,15.8571429 15.6363636,15.8571429 C16.8413485,15.8571429 17.8181818,16.8165327 17.8181818,18 C17.8181818,18.1473646 17.8030359,18.2912549 17.7741897,18.4302512 L20.5462918,20.4732605 C22.4051993,18.5122392 25.0567603,17.2857143 28,17.2857143 C29.1135832,17.2857143 30.1854123,17.4612924 31.1883537,17.7857997 L31.5496314,16.6595585 C31.1539181,16.2716618 30.9090909,15.7353401 30.9090909,15.1428571 C30.9090909,13.9593898 31.8859242,13 33.0909091,13 Z M28,20.0285714 C25.817099,20.0285714 23.8552813,20.9582386 22.5026165,22.4364333 L21.7145027,23.4684427 C21.0148321,24.5773809 20.6109091,25.8852193 20.6109091,27.2857143 C20.6109091,31.2937236 23.9191178,34.5428571 28,34.5428571 C32.0808822,34.5428571 35.3890909,31.2937236 35.3890909,27.2857143 C35.3890909,23.277705 32.0808822,20.0285714 28,20.0285714 Z M25.8181818,24.4285714 C27.0231667,24.4285714 28,25.3879613 28,26.5714286 C28,27.7548959 27.0231667,28.7142857 25.8181818,28.7142857 C24.6131969,28.7142857 23.6363636,27.7548959 23.6363636,26.5714286 C23.6363636,25.3879613 24.6131969,24.4285714 25.8181818,24.4285714 Z M30.9090909,24.4285714 C31.7124142,24.4285714 32.3636364,25.0681646 32.3636364,25.8571429 C32.3636364,26.6461211 31.7124142,27.2857143 30.9090909,27.2857143 C30.1057676,27.2857143 29.4545455,26.6461211 29.4545455,25.8571429 C29.4545455,25.0681646 30.1057676,24.4285714 30.9090909,24.4285714 Z" id="Combined-Shape" fill="#523178" fill-rule="nonzero"></path>
    </g>
</svg>

<svg width="56" height="56" xmlns="http://www.w3.org/2000/svg"><g fill="#523178" fill-rule="evenodd"><circle opacity=".12" cx="28" cy="28" r="28"/><path d="M33.09 13c1.206 0 2.183.96 2.183 2.143 0 1.112-.863 2.026-1.967 2.132l-.401 1.245c2.928 1.584 4.977 4.542 5.247 7.99l1.861.286a2.19 2.19 0 011.805-.939c1.205 0 2.182.96 2.182 2.143 0 1.183-.977 2.143-2.182 2.143-.991 0-1.829-.65-2.094-1.54l-1.6-.246a9.912 9.912 0 01-3.18 6.242l.66 1.293c.129-.023.26-.035.396-.035 1.205 0 2.182.96 2.182 2.143 0 1.183-.977 2.143-2.182 2.143s-2.182-.96-2.182-2.143c0-.367.094-.713.26-1.015l-.634-1.247a10.228 10.228 0 01-3.552 1.375l.55 1.616c1.082.127 1.922 1.031 1.922 2.128 0 1.184-.977 2.143-2.182 2.143S28 42.04 28 40.857c0-.61.26-1.16.675-1.55l-.686-2.021-.27-.004a10.23 10.23 0 01-7.456-3.495l-3.904 1.501c-.076 1.116-1.022 1.998-2.177 1.998-1.205 0-2.182-.96-2.182-2.143 0-1.184.977-2.143 2.182-2.143.58 0 1.108.223 1.498.586l3.478-1.338a9.817 9.817 0 01-1.34-4.962c0-1.975.583-3.816 1.589-5.366l-2.75-2.025a2.204 2.204 0 01-1.02.248c-1.206 0-2.182-.96-2.182-2.143 0-1.183.976-2.143 2.181-2.143s2.182.96 2.182 2.143c0 .147-.015.291-.044.43l2.772 2.043A10.24 10.24 0 0128 17.286c1.114 0 2.185.175 3.188.5l.362-1.126a2.117 2.117 0 01-.64-1.517c0-1.184.976-2.143 2.18-2.143zM28 20.029a7.43 7.43 0 00-5.497 2.407l-.788 1.032a7.128 7.128 0 00-1.104 3.818c0 4.008 3.308 7.257 7.389 7.257 4.08 0 7.39-3.25 7.39-7.257 0-4.008-3.31-7.257-7.39-7.257zm-2.182 4.4c1.205 0 2.182.959 2.182 2.142 0 1.184-.977 2.143-2.182 2.143s-2.182-.96-2.182-2.143c0-1.183.977-2.142 2.182-2.142zm5.091 0c.803 0 1.455.64 1.455 1.428 0 .79-.652 1.429-1.455 1.429s-1.454-.64-1.454-1.429.65-1.428 1.454-1.428z" fill-rule="nonzero"/></g></svg>
